packages/assets/static/images/icons/castle.svg

<svg width="24" height="24" viewBox="0 0 24 24" xmlns="http://www.w3.org/2000/svg">
<path d="M20.75 20.25H19.25V10.8103L20.3103 9.75C20.4502 9.61122 20.5611 9.44601 20.6366 9.26398C20.7121 9.08196 20.7506 8.88674 20.75 8.68969V4.5C20.75 4.10218 20.592 3.72064 20.3107 3.43934C20.0294 3.15804 19.6478 3 19.25 3H17C16.8011 3 16.6103 3.07902 16.4697 3.21967C16.329 3.36032 16.25 3.55109 16.25 3.75V6H14.75V3.75C14.75 3.55109 14.671 3.36032 14.5303 3.21967C14.3897 3.07902 14.1989 3 14 3H11C10.8011 3 10.6103 3.07902 10.4697 3.21967C10.329 3.36032 10.25 3.55109 10.25 3.75V6H8.75V3.75C8.75 3.55109 8.67098 3.36032 8.53033 3.21967C8.38968 3.07902 8.19891 3 8 3H5.75C5.35218 3 4.97064 3.15804 4.68934 3.43934C4.40804 3.72064 4.25 4.10218 4.25 4.5V8.68969C4.24937 8.88674 4.28792 9.08196 4.3634 9.26398C4.43888 9.44601 4.54979 9.61122 4.68969 9.75L5.75 10.8103V20.25H4.25C4.05109 20.25 3.86032 20.329 3.71967 20.4697C3.57902 20.6103 3.5 20.8011 3.5 21C3.5 21.1989 3.57902 21.3897 3.71967 21.5303C3.86032 21.671 4.05109 21.75 4.25 21.75H20.75C20.9489 21.75 21.1397 21.671 21.2803 21.5303C21.421 21.3897 21.5 21.1989 21.5 21C21.5 20.8011 21.421 20.6103 21.2803 20.4697C21.1397 20.329 20.9489 20.25 20.75 20.25ZM7.03063 9.96937L5.75 8.68969V4.5H7.25V6.75C7.25 6.94891 7.32902 7.13968 7.46967 7.28033C7.61032 7.42098 7.80109 7.5 8 7.5H11C11.1989 7.5 11.3897 7.42098 11.5303 7.28033C11.671 7.13968 11.75 6.94891 11.75 6.75V4.5H13.25V6.75C13.25 6.94891 13.329 7.13968 13.4697 7.28033C13.6103 7.42098 13.8011 7.5 14 7.5H17C17.1989 7.5 17.3897 7.42098 17.5303 7.28033C17.671 7.13968 17.75 6.94891 17.75 6.75V4.5H19.25V8.68969L17.9694 9.96937C17.8997 10.0391 17.8445 10.1218 17.8069 10.2129C17.7693 10.3039 17.7499 10.4015 17.75 10.5V20.25H15.5V15.75C15.5 14.9544 15.1839 14.1913 14.6213 13.6287C14.0587 13.0661 13.2956 12.75 12.5 12.75C11.7044 12.75 10.9413 13.0661 10.3787 13.6287C9.81607 14.1913 9.5 14.9544 9.5 15.75V20.25H7.25V10.5C7.25008 10.4015 7.23074 10.3039 7.1931 10.2129C7.15546 10.1218 7.10025 10.0391 7.03063 9.96937ZM14 20.25H11V15.75C11 15.3522 11.158 14.9706 11.4393 14.6893C11.7206 14.408 12.1022 14.25 12.5 14.25C12.8978 14.25 13.2794 14.408 13.5607 14.6893C13.842 14.9706 14 15.3522 14 15.75V20.25Z"/>
</svg>

<svg viewBox="0 0 24 24" xmlns="http://www.w3.org/2000/svg" aria-hidden="true" fill="currentColor"><path d="M20.75 20.25h-1.5v-9.44l1.06-1.06a1.5 1.5 0 0 0 .44-1.06V4.5a1.5 1.5 0 0 0-1.5-1.5H17a.75.75 0 0 0-.75.75V6h-1.5V3.75A.75.75 0 0 0 14 3h-3a.75.75 0 0 0-.75.75V6h-1.5V3.75A.75.75 0 0 0 8 3H5.75a1.5 1.5 0 0 0-1.5 1.5v4.19a1.5 1.5 0 0 0 .44 1.06l1.06 1.06v9.44h-1.5a.75.75 0 1 0 0 1.5h16.5a.75.75 0 1 0 0-1.5M7.03 9.97 5.75 8.69V4.5h1.5v2.25A.75.75 0 0 0 8 7.5h3a.75.75 0 0 0 .75-.75V4.5h1.5v2.25a.75.75 0 0 0 .75.75h3a.75.75 0 0 0 .75-.75V4.5h1.5v4.19l-1.28 1.28a.75.75 0 0 0-.22.53v9.75H15.5v-4.5a3 3 0 0 0-6 0v4.5H7.25V10.5a.75.75 0 0 0-.22-.53M14 20.25h-3v-4.5a1.5 1.5 0 1 1 3 0z"/></svg>
